Adwaita++/actions/symbolic/curves-symbolic.svg

<svg fill="none" height="16" viewBox="0 0 16 16" width="16" xmlns="http://www.w3.org/2000/svg" xmlns:xlink="http://www.w3.org/1999/xlink">
  <defs>
    <clipPath id="clip0">
      <path d="m0 0h16v16h-16z"/>
    </clipPath>
  </defs>
  <g clip-path="url(#clip0)" clip-rule="evenodd" fill="#444" fill-rule="evenodd">
    <path d="m3.02539 1v2h-2l-.00195.99414.0039.01172h1.99805v1.99414h-1.99805v1h1.99805v2h-1.99805v1h1.99805v2h-1.99805v1h1.99805v2h1v-2h2v2h1v-2h2v2h1.00001v-2h2v2h1v-2h2.0019v-1h-2.0019v-2h2.0019v-1h-2.0019v-2h2.0019v-1h-2.0019v-2h2v-1h-2v-2h-1v2h-2v-2h-1.00001v2h-2v-2h-1v2h-2v-2zm7.00001 3.00195h2v1.99805h-2zm-6.00001.00196h2v1.99609h-2zm3 0h2v1.99609h-2zm-3 2.99609h2v2h-2zm3 0h2v2h-2zm3.00001 0h2v2h-2zm-6.00001 3h2v2h-2zm3 0h2v2h-2zm3.00001 0h2v2h-2z" opacity=".1"/>
    <path d="m14.5 1.5h-13v13h13zm-13-1.5c-.828427 0-1.5.671573-1.5 1.5v13c0 .8284.671573 1.5 1.5 1.5h13c.8284 0 1.5-.6716 1.5-1.5v-13c0-.828427-.6716-1.5-1.5-1.5z"/>
    <path d="m9.84158 9.90782c-1.73688 1.72428-3.92719 2.92448-6.88393 4.03918-.38758.1462-.81779-.0571-.95765-.447-.13986-.3899.06376-.8188.45125-.9651 2.84691-1.0755 4.81098-2.1801 6.33356-3.69161 1.52409-1.51294 2.65819-3.48582 3.75079-6.39006.1458-.38769.5742-.59225.9644-.45323.3902.13901.5944.56877.4488.95657-1.1346 3.02244-2.3669 5.22359-4.10722 6.95125z"/>
  </g>
</svg>

<svg xmlns="http://www.w3.org/2000/svg" fill="none" width="16" height="16" viewBox="0 0 16 16">
 <g clip-path="url(#clip0)">
  <path fill="#444" fill-rule="evenodd" opacity=".1" d="M3.02539 1V3H1.02539L1.02344 3.99414L1.02734 4.00586H3.02539V6H1.02734V7H3.02539V9H1.02734V10H3.02539V12H1.02734V13H3.02539V15H4.02539V13H6.02539V15H7.02539V13H9.02539V15H10.0254V13H12.0254V15H13.0254V13H15.0273V12H13.0254V10H15.0273V9H13.0254V7H15.0273V6H13.0254V4H15.0254V3H13.0254V1H12.0254V3H10.0254V1H9.02539V3H7.02539V1H6.02539V3H4.02539V1H3.02539ZM10.0254 4.00195H12.0254V6H10.0254V4.00195ZM4.02539 4.00391H6.02539V6H4.02539V4.00391ZM7.02539 4.00391H9.02539V6H7.02539V4.00391ZM4.02539 7H6.02539V9H4.02539V7ZM7.02539 7H9.02539V9H7.02539V7ZM10.0254 7H12.0254V9H10.0254V7ZM4.02539 10H6.02539V12H4.02539V10ZM7.02539 10H9.02539V12H7.02539V10ZM10.0254 10H12.0254V12H10.0254V10Z" clip-rule="evenodd"/>
  <path fill="#444" fill-rule="evenodd" d="M14.5 1.5H1.5V14.5H14.5V1.5ZM1.5 0C0.671573 0 0 0.671573 0 1.5V14.5C0 15.3284 0.671573 16 1.5 16H14.5C15.3284 16 16 15.3284 16 14.5V1.5C16 0.671573 15.3284 0 14.5 0H1.5Z" clip-rule="evenodd"/>
  <path fill="#444" fill-rule="evenodd" d="M9.84158 9.90782C8.1047 11.6321 5.91439 12.8323 2.95765 13.947C2.57007 14.0932 2.13986 13.8899 2 13.5V13.5C1.86014 13.1101 2.06376 12.6812 2.45125 12.5349C5.29816 11.4594 7.26223 10.3548 8.78481 8.84329C10.3089 7.33035 11.443 5.35747 12.5356 2.45323C12.6814 2.06554 13.1098 1.86098 13.5 2V2C13.8902 2.13901 14.0944 2.56877 13.9488 2.95657C12.8142 5.97901 11.5819 8.18016 9.84158 9.90782Z" clip-rule="evenodd"/>
 </g>
 <defs>
  <clipPath id="clip0">
   <rect fill="#fff" width="16" height="16"/>
  </clipPath>
 </defs>
</svg>
